svgs/sharp-solid/equals.svg

<svg xmlns="http://www.w3.org/2000/svg" viewBox="0 0 448 512"><!--! Font Awesome Pro 6.6.0 by @fontawesome - https://fontawesome.com License - https://fontawesome.com/license (Commercial License) Copyright 2024 Fonticons, Inc. --><path d="M48 128l-32 0 0 64 32 0 352 0 32 0 0-64-32 0L48 128zm0 192l-32 0 0 64 32 0 352 0 32 0 0-64-32 0L48 320z"/></svg>

<svg xmlns="http://www.w3.org/2000/svg" viewBox="0 0 448 512"><!--! Font Awesome Pro 6.5.2 by @fontawesome - https://fontawesome.com License - https://fontawesome.com/license (Commercial License) Copyright 2024 Fonticons, Inc. --><path d="M48 128H16v64H48 400h32V128H400 48zm0 192H16v64H48 400h32V320H400 48z"/></svg>
